X:1
T:Augelletti canori
T:Augelletti canori
T:Raffaello Rontani
T:Source : Le varie Musiche a uno e due voci---Roma---G.B.Robletti---1622. Editor : André Vierendeels (05/05/16).
T:Notes : Original clefs : C1, F4 Note values have been halved in 3-beat measures Figures in BC are notated in original print m5 in S : "F" for "E" in original print BC adapted by the editor in m13+14
T:©
T:©
T:©
C:Raffaello Rontani
Z:©
%%score 1 2
L:1/8
Q:1/4=94
M:6/4
K:F
V:1 treble nm="Soprano" snm="S"
V:2 bass nm="BC" snm="BC"
V:1
 z2 B2 F2 GA Bc de | f3 f B2 cB cG cB | A4 G2 c2 c2 c2 | dc BA G2 AB c2 de |[M:2/2] f3 e d4 | %5
w: Au- gel- let- * * * * *|* ti ca- no- * * * * *|* ri, ch'io que- sto|pra- * * * * * * * * *|to a- dor-|
w: So- a- vis- * * * * *|* si- mi ven- * * * * *|* ti, che mor- mo-|ran- * * * * * * * * *|do an- da-|
w: Lie- te pian- * * * * *|* te fio- ri- * * * * *|* te, ch'a que- sto|ver- * * * * * * * * *|* de bo-|
 c2 G2 B3 B | A2 Bc d2 cB- | A2 f2 _e3 d | d4 z2 c2 | c4 B4 |[M:4/4] z2 A2 A3 A | c3 F G4 | G4 z4 | %13
w: no de- sta- te'i|fio- * * * * ri|_ al ap- pa-|rir del|gior- no,|ta- ce- te'o-|mai ch'io vo-|glio,|
w: te, e le cor-|ren- * * * * ti,|_ rug- gia- de'in-|na- mo-|ra- te,|fer- ma- te'io|pre- go'il vo-|lo|
w: scho, il sol co-|pri- * * * * te,|_ e'l fa- te'om-|bro- so'e|fo- scho,|all' al- te|mie sven- tu-|re,|
 z BBB B2 B2 | z BBB c3 G | _A4 G4 | =BB c/G/c/B/ AB/c/ dB/A/ | G2 F2 d>d _e/B/e/d/ | %18
w: a du- ro sco- glio|nar- ra- re'i miei do-|lo- ri,|au- gel- let- * * * * * * * ti ca-|no- ri, au- gel- let- * * *|
w: l'as- pro mio duo- lo|ad a- scol- tar in-|ten- ti,|so- a- vis- * * * * * * * si- mi|ven- ti, so- a- vis- * * *|
w: l'al- pe- str'e du- re|schor- ze, in- te- ne-|ri- te,|lie- ti pian- * * * * * * * ti fio-|ri- te, lie- ti pian- * * *|
 cd/e/ f_e/d/ d2 c2 | B8 |] %20
w: * * * * ti ca- no- *|ri.|
w: * * * * si- mi ve- *|ti.|
w: * * * * te fio- ri- *|te.|
V:2
 B,4 A,2 G,6 | D,6 E,6 | F,4 C,2 A,,6 | B,,4 C,4 A,,4 |[M:2/2] F,,4 G,,4 | C,4 B,,4 | D,4 B,,4 | %7
 F,4 C,4 | D,4 _E,4 | F,4 B,,4 |[M:4/4] F,,8 | F,,4 C,4 | C,8 |"^b""^b""^b" G,8 | D,4 _E,4- | %15
"^4 -natural" E,2 F,2 G,4 | G,2 E,2 F,2 B,,2 | C,2 F,,2 B,2 G,2 | A,2 D,3 _E, F,2 | B,,8 |] %20

